X: 93
T:¡Ai, Pepiño adios!
M:3/4
L:1/8
Q:300
C:Trad
R:Jota
K:C
E2{C}E2 | C2E2C2- | C2 E2{C}E2 | C2E2 D2-| D2 E2F2 | G2{C}G2{C}G2 | {C}G
2 F2 E2 | F2 GF E2- |1 E2 
:|2 E"F."G E2 A2 |G4 F2 | E4 D2 |C6- | C2 E2 A2 G4 F2 |E4 D2 | C6- | C6
|: D3 C B,2 | E2{C}E2{C}E2 | {C}E3 DC2- |
C6 :| |: F2"F."c F{C}F2 | G2{C}G2{C}G2 |{C}G3 F E2 | F2{C}F2{C}F2 | {C}F
3
 E D2 |E2{C}E2{C}E2 | {C}E3DC2-
|1 C6 :|2 C2 

